X:1
T:Song of Death,The. Dix.26
T:Song of Death,The. Dix.26
T:Words by Burns
C:Words by Burns
L:1/8
Q:3/8=40
M:6/8
K:Bmin
V:1 treble 
V:1
 A | B>A (B/d/) eea | f>e{fe}d{d} B2 g | f{g}a({g} f/e/) dd (F/^G/) | A3- A2 (B/d/) | %5
w: Fare-|well thou f- air day thou green|earth and ye skies, Now|gay with th- e broad sett- ing S-|un! Fare * *|
 B>A (B/d/) e>fg |{g} fed/{d} B2 g | (f/g/)({fg} a/g/) (f/e/) dd (F/^G/)"^bar line added" | %8
w: well loves a- nd friend- ships ye|dear ten- der ties; our|r- ace o- f ex- ist- ence i- s run|
 A3- A2 :: (f/g/) | aad' bb (b/=a/) | b>ag B2 g | f>e (f a)b/ b2 f |{f} a3- a2 a | b>ag aag | %15
w: |Th- ou|grim king of ter- ror, th- ou|life's gloom- y foe, Go|fright- en th- e co- ward and|sl- ave! Go|teach them to trem- ble, fell|
 f>e{fe}d B2 g | f<a (f/e/) dd (F/^G/) | A3- A2 :| %18
w: ty- rant but know, No|ter- ror h- ast thou to th- e|br- ave.|

